svgs/thin/file-dashed-line.svg

<svg xmlns="http://www.w3.org/2000/svg" viewBox="0 0 640 512"><!--! Font Awesome Pro 6.6.0 by @fontawesome - https://fontawesome.com License - https://fontawesome.com/license (Commercial License) Copyright 2024 Fonticons, Inc. --><path d="M448 496l-256 0c-26.5 0-48-21.5-48-48l0-96-16 0 0 96c0 35.3 28.7 64 64 64l256 0c35.3 0 64-28.7 64-64l0-96-16 0 0 96c0 26.5-21.5 48-48 48zm48-316.1l0 60.1 16 0 0-60.1c0-12.7-5.1-24.9-14.1-33.9L366.1 14.1c-9-9-21.2-14.1-33.9-14.1L192 0c-35.3 0-64 28.7-64 64l0 176 16 0 0-176c0-26.5 21.5-48 48-48l140.1 0c1.3 0 2.6 .1 3.9 .2L336 136c0 22.1 17.9 40 40 40l119.8 0c.2 1.3 .2 2.6 .2 3.9zM489.1 160L376 160c-13.3 0-24-10.7-24-24l0-113.1c1 .8 1.9 1.6 2.7 2.4L486.6 157.3c.9 .9 1.7 1.8 2.4 2.7zM40 288c-4.4 0-8 3.6-8 8s3.6 8 8 8l144 0c4.4 0 8-3.6 8-8s-3.6-8-8-8L40 288zm224 0c-4.4 0-8 3.6-8 8s3.6 8 8 8l112 0c4.4 0 8-3.6 8-8s-3.6-8-8-8l-112 0zm192 0c-4.4 0-8 3.6-8 8s3.6 8 8 8l144 0c4.4 0 8-3.6 8-8s-3.6-8-8-8l-144 0z"/></svg>

<svg xmlns="http://www.w3.org/2000/svg" viewBox="0 0 640 512"><!--! Font Awesome Pro 6.4.0 by @fontawesome - https://fontawesome.com License - https://fontawesome.com/license (Commercial License) Copyright 2023 Fonticons, Inc. --><path d="M448 496H192c-26.5 0-48-21.5-48-48V352H128v96c0 35.3 28.7 64 64 64H448c35.3 0 64-28.7 64-64V352H496v96c0 26.5-21.5 48-48 48zm48-316.1V240h16V179.9c0-12.7-5.1-24.9-14.1-33.9L366.1 14.1c-9-9-21.2-14.1-33.9-14.1H192c-35.3 0-64 28.7-64 64V240h16V64c0-26.5 21.5-48 48-48H332.1c1.3 0 2.6 .1 3.9 .2V136c0 22.1 17.9 40 40 40H495.8c.2 1.3 .2 2.6 .2 3.9zM489.1 160H376c-13.3 0-24-10.7-24-24V22.9c1 .8 1.9 1.6 2.7 2.4L486.6 157.3c.9 .9 1.7 1.8 2.4 2.7zM40 288c-4.4 0-8 3.6-8 8s3.6 8 8 8H184c4.4 0 8-3.6 8-8s-3.6-8-8-8H40zm224 0c-4.4 0-8 3.6-8 8s3.6 8 8 8H376c4.4 0 8-3.6 8-8s-3.6-8-8-8H264zm192 0c-4.4 0-8 3.6-8 8s3.6 8 8 8H600c4.4 0 8-3.6 8-8s-3.6-8-8-8H456z"/></svg>
